X:1
T: The House of Edinglassie
C:Alexander Walker
R:Reel
Q: 232
K:Em
M:4/4
L:1/8
|:B,E EF G2 GB|AB AG Fd FD|B,E EF G2 GB|AF dF E1/2E1/2E E2|
B,E EF G2 GB|AB AG Fd FD|B,E EF G2 GB|AF dF E1/2E1/2E Ef|
eB ef g2 ge|fb ag fd df|eB ef g2 ge|dB AF E1/2E1/2E Ef|
eB ef g2 ge|gb ge fa fd|Be gf e2 BG|Ac BD E1/2E1/2E E2:|
